X:1
T:Title
%%score { 1 | ( 2 3 ) }
L:1/8
M:4/4
K:G
V:1 treble nm="Grand Piano"
V:2 bass 
V:3 bass 
V:1
 z4 z2 z[Q:1/4=100] D | B_B=Bc [DB][DA][DG][DF] | E2 G2 D3 D | %3
 [FA][=F^G][^FA][=GB] [Fd][EFc][DFB][CFA] | [B,G]2 [^CGB]2 [DFA]3 B | d^cde dBAG | %6
 [EA]2 [EB]2 [Ec]3 c | BBBc ddG[EAc] |[M:7/8] [DGB]2 [CFA]2 [G,B,DG]3 |[M:1/4] D2 | %10
[M:4/4] d3 ^c ed=cB | [FA]2 B2 [DAc]2 [F,D]2 | [Fc]3 [FB] [Fd][Fc][FB][FA] |[M:3/4] G2 [FA]2 B2 | %14
[M:1/4] G2 |[M:4/4] e3 e d2 G2 | c2 [Fc]2 B3 D | GDGB d2 [EAc]2 |[M:5/4] [DGB]3 [CFA]3 [G,B,DG]4 |] %19
V:2
 z4 z2 z [G,B,] | [G,D][G,^C][G,D][G,E] [G,,G,][A,,F,][B,,G,][B,,G,] | %2
 [C,G,C]2 [E,G,C]2 [G,B,]3 [G,B,] | [D,C][D,B,][D,C][D,B,] [D,A,]D,D,D, | %4
 E,2 A,,2 D,3[K:treble] [G,DG] | [G,B,G][G,_B,G][G,=B,G][G,CG] [G,B,G][G,DG][K:bass][G,CD][G,B,D] | %6
 [C,C]2 [B,,^G,]2 [A,,A,]3 [D,F,D] | [G,D][G,D][G,D][G,A,D] [G,B,D][G,B,D][G,B,D]C, | %8
[M:7/8] C,2 D,2 G,,3 |[M:1/4] [G,B,]2 | %10
[M:4/4][K:treble] [G,B,G]3 [G,_B,G] [G,CG][G,=B,G][G,EG][G,DG] | z2 G2[K:bass] D,2 D,2 | %12
 [D,A,]3 [D,^G,] [D,A,][D,A,][D,D][D,C] |[M:3/4] [E,B,]2 [D,D]2[K:treble] [G,DG]2 |[M:1/4] [B,D]2 | %15
[M:4/4] [CG]3 [CG] [B,DG]2 [B,D]2 | [A,EG]2[K:bass] [D,D]2 [G,DG]3 D, | G,D,G,B, D2 C,2 | %18
[M:5/4] D,3 D,3 G,,4 |] %19
V:3
 x8 | x8 | x8 | x8 | x7[K:treble] x | x6[K:bass] x2 | x8 | x8 |[M:7/8] x7 |[M:1/4] x2 | %10
[M:4/4][K:treble] x8 | [D,D]4[K:bass] z4 | x8 |[M:3/4] x4[K:treble] x2 |[M:1/4] x2 |[M:4/4] x8 | %16
 x2[K:bass] x6 | x8 |[M:5/4] x10 |] %19

